icons/svgs/pause-circle-outline.svg

<svg width="24" height="24" viewBox="0 0 24 24" fill="none" xmlns="http://www.w3.org/2000/svg">
<path d="M20.125 12C20.125 9.10938 18.5625 6.45312 16.0625 4.96875C13.5234 3.52344 10.4375 3.52344 7.9375 4.96875C5.39844 6.45312 3.875 9.10938 3.875 12C3.875 14.9297 5.39844 17.5859 7.9375 19.0703C10.4375 20.5156 13.5234 20.5156 16.0625 19.0703C18.5625 17.5859 20.125 14.9297 20.125 12ZM2 12C2 8.44531 3.875 5.16406 7 3.36719C10.0859 1.57031 13.875 1.57031 17 3.36719C20.0859 5.16406 22 8.44531 22 12C22 15.5938 20.0859 18.875 17 20.6719C13.875 22.4688 10.0859 22.4688 7 20.6719C3.875 18.875 2 15.5938 2 12ZM10.75 9.1875V14.8125C10.75 15.3594 10.3203 15.75 9.8125 15.75C9.26562 15.75 8.875 15.3594 8.875 14.8125V9.1875C8.875 8.67969 9.26562 8.25 9.8125 8.25C10.3203 8.25 10.75 8.67969 10.75 9.1875ZM15.125 9.1875V14.8125C15.125 15.3594 14.6953 15.75 14.1875 15.75C13.6406 15.75 13.25 15.3594 13.25 14.8125V9.1875C13.25 8.67969 13.6406 8.25 14.1875 8.25C14.6953 8.25 15.125 8.67969 15.125 9.1875Z" fill="black"/>
</svg>

<svg xmlns="http://www.w3.org/2000/svg" width="24" height="24" fill="currentColor" class="icon-pause-circle-outline" viewBox="0 0 24 24">
  <mask id="a" width="20" height="21" x="2" y="2" maskUnits="userSpaceOnUse" style="mask-type:alpha">
    <path d="M20.125 12c0-2.89-1.562-5.547-4.062-7.031-2.54-1.446-5.625-1.446-8.125 0C5.398 6.453 3.875 9.109 3.875 12a8.13 8.13 0 0 0 4.063 7.07c2.5 1.446 5.585 1.446 8.125 0 2.5-1.484 4.062-4.14 4.062-7.07M2 12a9.93 9.93 0 0 1 5-8.633c3.086-1.797 6.875-1.797 10 0 3.086 1.797 5 5.078 5 8.633 0 3.594-1.914 6.875-5 8.672-3.125 1.797-6.914 1.797-10 0C3.875 18.875 2 15.594 2 12m8.75-2.812v5.624c0 .547-.43.938-.937.938-.547 0-.938-.39-.938-.937V9.186c0-.507.39-.937.938-.937a.95.95 0 0 1 .937.938m4.375 0v5.624c0 .547-.43.938-.937.938-.547 0-.938-.39-.938-.937V9.186c0-.507.39-.937.938-.937a.95.95 0 0 1 .937.938"/>
  </mask>
  <g mask="url(#a)">
    <path d="M0 0h24v24H0z"/>
  </g>
</svg>
